X: 1
T: Vieni sul mar
O: trad Italy
R: waltz
Z: John Chambers <jc@trillian.mit.edu>
S: Enrico Caruso recording
M: 3/4
L: 1/4
K: F
"Intro"[|]\
 EF | "Bb"GD2 | "(C7)"zFG | "F"AA2 | zAB | "C7"dc=B | cGA | "F"Fz"C7"c | "F"f |]
"Verse"[|\
 FG | "F"Adc | "C7"AFG | "F"AF2 | zFG | ABc | "Bb"de>d | "C7"G3 |
